svgs/solid/rectangle-ad.svg

<svg xmlns="http://www.w3.org/2000/svg" viewBox="0 0 576 512"><!--! Font Awesome Pro 6.0.0-alpha3 by @fontawesome - https://fontawesome.com License - https://fontawesome.com/license (Commercial License) --><path d="M416 280c0 13.23-10.77 24-24 24c-13.23 0-24-10.77-24-24S378.8 256 392 256C405.2 256 416 266.8 416 280zM186.8 280H229.2L208 237.7L186.8 280zM576 96v320c0 35.35-28.65 64-64 64H64c-35.35 0-64-28.65-64-64v-320c0-35.35 28.65-64 64-64h448C547.3 32 576 60.65 576 96zM301.5 317.3l-72-144c-8.125-16.25-34.81-16.25-42.94 0l-72 144c-5.938 11.86-1.125 26.27 10.75 32.2c11.88 5.969 26.28 1.125 32.19-10.73L166.8 320H249.2l9.367 18.73C262.8 347.1 271.2 352 280 352c3.594 0 7.25-.8125 10.69-2.531C302.6 343.5 307.4 329.1 301.5 317.3zM464 184c0-13.25-10.75-23.1-24-23.1S416 170.8 416 184v28.41C408.5 209.7 400.5 208 392 208C352.2 208 320 240.2 320 280S352.2 352 392 352c11.11 0 21.51-2.727 30.9-7.221c4.355 4.439 10.39 7.221 17.1 7.221c13.25 0 24-10.75 24-24V184z"/></svg>

<svg xmlns="http://www.w3.org/2000/svg" viewBox="0 0 576 512"><!--! Font Awesome Pro 6.0.0 by @fontawesome - https://fontawesome.com License - https://fontawesome.com/license (Commercial License) Copyright 2022 Fonticons, Inc. --><path d="M208 237.7L229.2 280H186.8L208 237.7zM416 280C416 293.3 405.3 304 392 304C378.7 304 368 293.3 368 280C368 266.7 378.7 256 392 256C405.3 256 416 266.7 416 280zM512 32C547.3 32 576 60.65 576 96V416C576 451.3 547.3 480 512 480H64C28.65 480 0 451.3 0 416V96C0 60.65 28.65 32 64 32H512zM229.5 173.3C225.4 165.1 217.1 160 208 160C198.9 160 190.6 165.1 186.5 173.3L114.5 317.3C108.6 329.1 113.4 343.5 125.3 349.5C137.1 355.4 151.5 350.6 157.5 338.7L162.8 328H253.2L258.5 338.7C264.5 350.6 278.9 355.4 290.7 349.5C302.6 343.5 307.4 329.1 301.5 317.3L229.5 173.3zM416 212.1C408.5 209.4 400.4 208 392 208C352.2 208 320 240.2 320 280C320 319.8 352.2 352 392 352C403.1 352 413.6 349.5 423 344.1C427.4 349.3 433.4 352 440 352C453.3 352 464 341.3 464 328V184C464 170.7 453.3 160 440 160C426.7 160 416 170.7 416 184V212.1z"/></svg>
